X: 1
T: Hommage \`a Arthur, Marcel et Phylias Pigeon v.1   [Am]
T: Hommage aux Pigeons
C: Philippe Bruneau
R: reel
B: Portland Collection v.3 p.93
Z: 2016 John Chambers <jc:trillian.mit.edu>
M: C|
L: 1/8
K: Am
z2 "A"|:\
"Am"A4 e4 | "E7"dedc B4 |\
"G"B2BB "F"c2cc | "B7"ABcA "E7"Bedc ||\
"Am"A3A e3e |
"E7"dedc B3B |\
"G"B2BB "F"c2c2 | "E7"zcBE |[1 "Am"A4 :|[2 "Am"AE \
"B"|: AB |\
"Am"c2Bc dcBc |
AECD EGAB |\
ccBc dcBc | AECD Eeee ||\
"Am"(3dfd Be (3dfd Be | "Am"(3cec ae (3cdc ac |
"B7"BBec "E7"BBee | "Am"aBcd "E7"ecaB |]|\
"Am"c2Bc dcBc | AECD EGAB |\
ccBc dcBc |
AECD Eeee ||\
"Dm"(3dfd Be (3dfd Be | "Am"(3cec ae (3cec ae |\
"B7"BBee "E7"edcB | "Am"(3ABA ce a2 :|
